!!!!SEGMENT: pl-sa--l-1636--033_anonim--keyboard-piece.krn
!!!cenid: 17xx:740
!!!COM: Anonim
!!!COM-rismID: pe30004985
!!!CDT:
!!!CNT:
!!!OTL: [Keyboard piece]
!!!PDT:
!!!AGN: Secular
!!!YEC: Copyright 2022 Narodowy Instytut Fryderyka Chopina (https://polishscores.org)
!!!YEM: License CC-BY-4.0 (https://creativecommons.org/licenses/by/4.0)
!!!SMS-siglum: PL-SA
!!!SMS-shelfmark: L 1636
!!!SMS-shelfwork: 033 W
!!!SMS-variant:
!!!SMS-altvar:
!!!NIFC-rismSourceID: 1001076507
!!!NIFC-rismChildID: 1001076507
!!!NIFC-islandoraID:
!!!URL-pdf-islandora:
!!!URL-scan:
!!!IIIF:
!!!ONB-nifc: 9v, skan 0013, s. 3-4
!!!AIN: 1 empty
!!!key:
**kern	**kern
*part1	*part1
*staff2	*staff1
*Iempty	*Iempty
*I"	*I"
*clefF4	*clefC1
*k[b-]	*k[b-]
*F:	*F:
*M2/2	*M2/2
*met(c|)	*met(c|)
=1	=1
*all\right	*all\right
*	*^
1ryy	8f/L	2.ryy
.	8g/J	.
.	8a\L	.
.	8b-\J	.
.	8cc\L	.
.	8b-\J	.
.	8a/L	8f\L
.	8g/J	8e\J
=2	=2	=2
1ryy	8f/L	8d\L
.	8e/J	8c\J
.	16d/LL	4ryy
.	16c/	.
.	16d/	.
.	16e/JJ	.
.	8f/L	2ryy
.	16e/L	.
.	16d/JJ	.
.	4e/	.
*	*v	*v
=3	=3
8F\L	1a 1f
8C\	.
8D\	.
8E\J	.
8F\L	.
8G\	.
8A\	.
8B-\J	.
=4	=4
8c\L	1g 1e
8B-\	.
8A\	.
8G\J	.
8F\L	.
8E\	.
8D\	.
8C\J	.
=5	=5
8BB-/L	1b- 1d
8C/	.
8D/	.
8E/J	.
8F\L	.
8G\	.
8A\	.
8B-\J	.
=6	=6
*	*^
!LO:TX:a:t=P:problem=mixed beam	!	!
8c\L	4g/	4e\
8C/J	.	.
4F\	4a/	4f\
!!LO:LB:g=original
*2\right	*	*
2G\	8cc/L	[4g\
.	16bn/L	.
.	16a/JJ	.
.	4b/	8g\L]
.	.	8f\J
=7	=7	=7
!!linebreak:original
8c\L	2g/	2e\
8B-\	.	.
8A\	.	.
8G\J	.	.
8F\L	2a/	2f\
8E\	.	.
8D\	.	.
8C\J	.	.
=8	=8	=8
8BB-/L	2b-/	2f\
8C/	.	.
8D/	.	.
8E/J	.	.
!LO:TX:a:t=P:problem=mixed beam	!	!
8F\L	2a/	2f\
8FF/	.	.
8AA/	.	.
8BB-/J	.	.
=9	=9	=9
!LO:TX:a:t=P:problem=mixed beam	!	!
8C/L	4g/	4e\
8E\	.	.
8F\	4a/	4f\
8AA\J	.	.
8BB-/L	2g/	4f\
8GG/	.	.
8C/	.	4e\
8CC/J	.	.
*	*v	*v
=10	=10
!LO:TX:a:t=P:||:problem=kreska taktowa 	!LO:TX:a:t=P:||:problem=kreska taktowa 
1F 1C 1FF	1f 1c 1A
==	==
*-	*-
!!!system-decoration: s1,s2
!!!ENC: Marta Lawrence
!!!END: 2020-12-07
!!!ENC: Tomasz Grochalski
!!!END: 2020-06-11
